symbols/web/format_color_text/materialsymbolsoutlined/format_color_text_gradN25_20px.svg

<svg xmlns="http://www.w3.org/2000/svg" height="20" width="20"><path d="M1.75 17.396v-3.208h16.5v3.208Zm2.958-5.625L9.021.354h1.958l4.313 11.417h-1.959l-1.021-2.854H7.667l-1.021 2.854ZM8.25 7.25h3.479l-1.687-4.688h-.084Z"/></svg>

<svg xmlns="http://www.w3.org/2000/svg" height="20" width="20"><path d="M1.75 17.396V14.188H18.25V17.396ZM4.708 11.771 9.021 0.354H10.979L15.292 11.771H13.333L12.312 8.917H7.667L6.646 11.771ZM8.25 7.25H11.729L10.042 2.562H9.958Z"/></svg>
